src/assets/logo.svg

<svg xmlns="http://www.w3.org/2000/svg" viewBox="0 0 298 287" fill="none">
  <path fill="#483030" d="M153.118 265.995c45.313-46.577 89.239-223.46 99.033-264.8155.275-1.1612972 2.02-.876175 2.02.31725V247.495c0 .552-.448 1-1 1H1.29588c-.973255 0-1.3575077 1.22-.547731 1.759C16.8704 261.003 104.736 315.724 153.118 265.995Z"/>
  <path fill="#483030" d="M166.561 248.495c-4.447 6.947-8.937 12.868-13.443 17.5l-.569.578c-47.973 48.197-133.8563-4.45-151.25295-15.958l-.547901-.361c-.7590587-.506-.468938-1.61.372111-1.746l.17562-.013H166.561Zm-154.7816 4c11.9043 7.169 31.9453 17.948 54.1817 24.47 29.5855 8.678 61.6899 9.471 84.2899-13.76l.507-.527c2.752-2.892 5.514-6.307 8.281-10.183H11.7794Zm154.7816-4c40.267-62.916 76.77-210.0724 85.59-247.3155.275-1.1612972 2.02-.876175 2.02.31725V247.495l-.005.102c-.048.47-.422.845-.892.893l-.103.005h-86.61Zm83.61-222.4214c-6.741 26.7393-17.399 66.5836-30.411 106.7874-8.958 27.677-19.053 55.596-29.777 79.556-5.249 11.727-10.693 22.602-16.277 32.078h76.465V26.0736ZM243.662 281.047c-3.435 0-6.164-1.089-8.188-3.266-1.993-2.208-2.99-5.29-2.99-9.246 0-2.392.445-4.524 1.334-6.394.92-1.902 2.193-3.389 3.818-4.462 1.625-1.104 3.511-1.656 5.658-1.656 2.3 0 4.201.506 5.704 1.518 1.533.981 2.683 2.315 3.45 4.002.767 1.686 1.15 3.542 1.15 5.566 0 1.073-.046 2.116-.138 3.128h-16.744c.276 2.238 1.058 3.986 2.346 5.244 1.288 1.257 2.99 1.886 5.106 1.886 1.38 0 2.622-.138 3.726-.414 1.104-.307 2.162-.69 3.174-1.15l.966 3.542c-1.104.49-2.346.889-3.726 1.196-1.38.337-2.929.506-4.646.506Zm-6.992-14.168h13.11c0-2.331-.583-4.125-1.748-5.382-1.165-1.258-2.775-1.886-4.83-1.886-1.779 0-3.251.628-4.416 1.886-1.165 1.226-1.871 3.02-2.116 5.382ZM188.322 280.495v-23.92h4.002v4.002c.859-1.288 1.947-2.362 3.266-3.22 1.319-.89 2.821-1.334 4.508-1.334 1.901 0 3.45.46 4.646 1.38 1.227.92 2.085 2.146 2.576 3.68.951-1.411 2.07-2.607 3.358-3.588 1.319-.982 2.944-1.472 4.876-1.472 2.607 0 4.539.828 5.796 2.484 1.288 1.625 1.932 3.756 1.932 6.394v15.594h-4.14v-15.272c0-1.656-.383-2.99-1.15-4.002-.767-1.043-1.825-1.564-3.174-1.564-1.38 0-2.668.521-3.864 1.564-1.165 1.012-2.193 2.208-3.082 3.588v15.686h-4.14v-15.272c0-1.656-.383-2.99-1.15-4.002-.767-1.043-1.825-1.564-3.174-1.564s-2.622.506-3.818 1.518c-1.196.981-2.239 2.146-3.128 3.496v15.824h-4.14ZM174.071 281.047c-.828 0-1.549-.307-2.162-.92-.613-.614-.92-1.334-.92-2.162 0-.951.276-1.702.828-2.254.552-.552 1.303-.828 2.254-.828.797 0 1.503.306 2.116.92.644.613.966 1.334.966 2.162 0 .92-.291 1.671-.874 2.254-.583.552-1.319.828-2.208.828ZM261.595 231.151c0-1.44.304-2.8.912-4.08.608-1.28 1.584-2.32 2.928-3.12 1.376-.8 3.2-1.2 5.472-1.2h16.224v4.32h-15.648c-1.952 0-3.456.416-4.512 1.248-1.024.832-1.536 2.048-1.536 3.648 0 1.312.256 2.576.768 3.792.544 1.248 1.264 2.352 2.16 3.312h18.768v4.32h-18.48c-1.376 0-2.288.288-2.736.864-.416.608-.624 1.264-.624 1.968l-3.36-.912c0-2.976 1.184-4.816 3.552-5.52-1.152-1.12-2.096-2.416-2.832-3.888-.704-1.472-1.056-3.056-1.056-4.752ZM261.595 197.658c0-1.888.24-3.6.72-5.136.48-1.504 1.104-2.752 1.872-3.744l3.6 1.824c-.704.832-1.296 1.872-1.776 3.12-.448 1.28-.672 2.64-.672 4.08 0 1.792.288 3.136.864 4.032.608.928 1.376 1.392 2.304 1.392.672 0 1.264-.176 1.776-.528.512-.32 1.008-.928 1.488-1.824.512-.896 1.056-2.192 1.632-3.888.8-2.336 1.744-4.096 2.832-5.28 1.12-1.152 2.656-1.728 4.608-1.728 1.92 0 3.536.832 4.848 2.496 1.344 1.696 2.016 4.032 2.016 7.008 0 1.6-.176 3.024-.528 4.272-.32 1.248-.736 2.368-1.248 3.36l-3.552-1.2c.512-.864.928-1.856 1.248-2.976.32-1.088.48-2.304.48-3.648 0-1.664-.336-2.928-1.008-3.792-.672-.864-1.408-1.296-2.208-1.296-.768 0-1.424.336-1.968 1.008-.544.672-1.136 1.984-1.776 3.936-1.056 3.168-2.224 5.376-3.504 6.624-1.28 1.248-2.88 1.872-4.8 1.872-2.24 0-4.016-.912-5.328-2.736-1.28-1.792-1.92-4.208-1.92-7.248ZM261.595 161.265c0-2.08.528-3.968 1.584-5.664 1.056-1.696 2.544-3.056 4.464-4.08 1.952-.992 4.24-1.488 6.864-1.488 2.496 0 4.736.496 6.72 1.488 1.984 1.024 3.552 2.416 4.704 4.176 1.184 1.792 1.776 3.84 1.776 6.144 0 1.44-.256 2.736-.768 3.888-.48 1.184-1.088 2.208-1.824 3.072h2.016v3.936h-18.912c-1.216 0-2.016.288-2.4.864-.352.608-.528 1.264-.528 1.968l-3.36-.912c0-3.072 1.248-4.928 3.744-5.568-1.024-.736-1.968-1.744-2.832-3.024-.832-1.248-1.248-2.848-1.248-4.8Zm3.84.96c0 1.216.288 2.368.864 3.456.608 1.088 1.36 2 2.256 2.736h13.392c.608-.864 1.088-1.824 1.44-2.88.384-1.024.576-2.112.576-3.264 0-1.536-.4-2.896-1.2-4.08-.768-1.152-1.856-2.064-3.264-2.736-1.376-.672-2.992-1.008-4.848-1.008-1.792 0-3.392.336-4.8 1.008-1.376.672-2.464 1.6-3.264 2.784-.768 1.184-1.152 2.512-1.152 3.984ZM261.595 132.708c0-2.4.784-4.304 2.352-5.712 1.6-1.376 3.872-2.064 6.816-2.064h11.712v-4.32h3.744v4.416l7.872.912v3.312h-7.872v6.912h-3.744v-6.912h-12.048c-1.856 0-3.152.384-3.888 1.152-.736.8-1.104 1.744-1.104 2.832 0 .8.128 1.552.384 2.256.256.736.56 1.408.912 2.016l-3.456 1.2c-.384-.64-.752-1.504-1.104-2.592-.384-1.088-.576-2.224-.576-3.408ZM261.595 94.299c0-2.08.528-3.968 1.584-5.664 1.056-1.696 2.544-3.056 4.464-4.08 1.952-.992 4.24-1.488 6.864-1.488 2.496 0 4.736.496 6.72 1.488 1.984 1.024 3.552 2.416 4.704 4.176 1.184 1.792 1.776 3.84 1.776 6.144 0 1.44-.256 2.736-.768 3.888-.48 1.184-1.088 2.208-1.824 3.072h2.016v3.936h-18.912c-1.216 0-2.016.288-2.4.864-.352.608-.528 1.264-.528 1.968l-3.36-.912c0-3.072 1.248-4.928 3.744-5.568-1.024-.736-1.968-1.744-2.832-3.024-.832-1.248-1.248-2.848-1.248-4.8Zm3.84.96c0 1.216.288 2.368.864 3.456.608 1.088 1.36 2 2.256 2.736h13.392c.608-.864 1.088-1.824 1.44-2.88.384-1.024.576-2.112.576-3.264 0-1.536-.4-2.896-1.2-4.08-.768-1.152-1.856-2.064-3.264-2.736-1.376-.672-2.992-1.008-4.848-1.008-1.792 0-3.392.336-4.8 1.008-1.376.672-2.464 1.6-3.264 2.784-.768 1.184-1.152 2.512-1.152 3.984ZM261.691 68.5665l13.296-12.912h-12.816v-4.32h35.52v4.32h-20.304l10.224 11.28-2.736 2.496-8.544-9.648-11.76 11.76-2.88-2.976Z"/>
</svg>

<svg viewBox="0 0 298 287" fill="none" xmlns="http://www.w3.org/2000/svg">
<path d="M153.118 265.995C198.431 219.418 242.357 42.535 252.151 1.1795C252.426 0.0182028 254.171 0.303325 254.171 1.49675V247.495C254.171 248.047 253.723 248.495 253.171 248.495H1.29588C0.322625 248.495 -0.0616277 249.715 0.748149 250.254C16.8704 261.003 104.736 315.724 153.118 265.995Z" fill="black"/>
<path d="M166.561 248.495C162.114 255.442 157.624 261.363 153.118 265.995L152.549 266.573C104.576 314.77 18.6927 262.123 1.29605 250.615L0.748149 250.254C-0.0109097 249.748 0.279211 248.644 1.12026 248.508L1.29588 248.495H166.561ZM11.7794 252.495C23.6837 259.664 43.7247 270.443 65.9611 276.965C95.5466 285.643 127.651 286.436 150.251 263.205L150.758 262.678C153.51 259.786 156.272 256.371 159.039 252.495H11.7794ZM166.561 248.495C206.828 185.579 243.331 38.4226 252.151 1.1795C252.426 0.0182028 254.171 0.303325 254.171 1.49675V247.495L254.166 247.597C254.118 248.067 253.744 248.442 253.274 248.49L253.171 248.495H166.561ZM250.171 26.0736C243.43 52.8129 232.772 92.6572 219.76 132.861C210.802 160.538 200.707 188.457 189.983 212.417C184.734 224.144 179.29 235.019 173.706 244.495H250.171V26.0736Z" fill="black"/>
<path d="M243.662 281.047C240.227 281.047 237.498 279.958 235.474 277.781C233.481 275.573 232.484 272.491 232.484 268.535C232.484 266.143 232.929 264.011 233.818 262.141C234.738 260.239 236.011 258.752 237.636 257.679C239.261 256.575 241.147 256.023 243.294 256.023C245.594 256.023 247.495 256.529 248.998 257.541C250.531 258.522 251.681 259.856 252.448 261.543C253.215 263.229 253.598 265.085 253.598 267.109C253.598 268.182 253.552 269.225 253.46 270.237H236.716C236.992 272.475 237.774 274.223 239.062 275.481C240.35 276.738 242.052 277.367 244.168 277.367C245.548 277.367 246.79 277.229 247.894 276.953C248.998 276.646 250.056 276.263 251.068 275.803L252.034 279.345C250.93 279.835 249.688 280.234 248.308 280.541C246.928 280.878 245.379 281.047 243.662 281.047ZM236.67 266.879H249.78C249.78 264.548 249.197 262.754 248.032 261.497C246.867 260.239 245.257 259.611 243.202 259.611C241.423 259.611 239.951 260.239 238.786 261.497C237.621 262.723 236.915 264.517 236.67 266.879Z" fill="black"/>
<path d="M188.322 280.495V256.575H192.324V260.577C193.183 259.289 194.271 258.215 195.59 257.357C196.909 256.467 198.411 256.023 200.098 256.023C201.999 256.023 203.548 256.483 204.744 257.403C205.971 258.323 206.829 259.549 207.32 261.083C208.271 259.672 209.39 258.476 210.678 257.495C211.997 256.513 213.622 256.023 215.554 256.023C218.161 256.023 220.093 256.851 221.35 258.507C222.638 260.132 223.282 262.263 223.282 264.901V280.495H219.142V265.223C219.142 263.567 218.759 262.233 217.992 261.221C217.225 260.178 216.167 259.657 214.818 259.657C213.438 259.657 212.15 260.178 210.954 261.221C209.789 262.233 208.761 263.429 207.872 264.809V280.495H203.732V265.223C203.732 263.567 203.349 262.233 202.582 261.221C201.815 260.178 200.757 259.657 199.408 259.657C198.059 259.657 196.786 260.163 195.59 261.175C194.394 262.156 193.351 263.321 192.462 264.671V280.495H188.322Z" fill="black"/>
<path d="M174.071 281.047C173.243 281.047 172.522 280.74 171.909 280.127C171.296 279.513 170.989 278.793 170.989 277.965C170.989 277.014 171.265 276.263 171.817 275.711C172.369 275.159 173.12 274.883 174.071 274.883C174.868 274.883 175.574 275.189 176.187 275.803C176.831 276.416 177.153 277.137 177.153 277.965C177.153 278.885 176.862 279.636 176.279 280.219C175.696 280.771 174.96 281.047 174.071 281.047Z" fill="black"/>
<path d="M261.595 231.151C261.595 229.711 261.899 228.351 262.507 227.071C263.115 225.791 264.091 224.751 265.435 223.951C266.811 223.151 268.635 222.751 270.907 222.751H287.131V227.071H271.483C269.531 227.071 268.027 227.487 266.971 228.319C265.947 229.151 265.435 230.367 265.435 231.967C265.435 233.279 265.691 234.543 266.203 235.759C266.747 237.007 267.467 238.111 268.363 239.071H287.131V243.391H268.651C267.275 243.391 266.363 243.679 265.915 244.255C265.499 244.863 265.291 245.519 265.291 246.223L261.931 245.311C261.931 242.335 263.115 240.495 265.483 239.791C264.331 238.671 263.387 237.375 262.651 235.903C261.947 234.431 261.595 232.847 261.595 231.151Z" fill="black"/>
<path d="M261.595 197.658C261.595 195.77 261.835 194.058 262.315 192.522C262.795 191.018 263.419 189.77 264.187 188.778L267.787 190.602C267.083 191.434 266.491 192.474 266.011 193.722C265.563 195.002 265.339 196.362 265.339 197.802C265.339 199.594 265.627 200.938 266.203 201.834C266.811 202.762 267.579 203.226 268.507 203.226C269.179 203.226 269.771 203.05 270.283 202.698C270.795 202.378 271.291 201.77 271.771 200.874C272.283 199.978 272.827 198.682 273.403 196.986C274.203 194.65 275.147 192.89 276.235 191.706C277.355 190.554 278.891 189.978 280.843 189.978C282.763 189.978 284.379 190.81 285.691 192.474C287.035 194.17 287.707 196.506 287.707 199.482C287.707 201.082 287.531 202.506 287.179 203.754C286.859 205.002 286.443 206.122 285.931 207.114L282.379 205.914C282.891 205.05 283.307 204.058 283.627 202.938C283.947 201.85 284.107 200.634 284.107 199.29C284.107 197.626 283.771 196.362 283.099 195.498C282.427 194.634 281.691 194.202 280.891 194.202C280.123 194.202 279.467 194.538 278.923 195.21C278.379 195.882 277.787 197.194 277.147 199.146C276.091 202.314 274.923 204.522 273.643 205.77C272.363 207.018 270.763 207.642 268.843 207.642C266.603 207.642 264.827 206.73 263.515 204.906C262.235 203.114 261.595 200.698 261.595 197.658Z" fill="black"/>
<path d="M261.595 161.265C261.595 159.185 262.123 157.297 263.179 155.601C264.235 153.905 265.723 152.545 267.643 151.521C269.595 150.529 271.883 150.033 274.507 150.033C277.003 150.033 279.243 150.529 281.227 151.521C283.211 152.545 284.779 153.937 285.931 155.697C287.115 157.489 287.707 159.537 287.707 161.841C287.707 163.281 287.451 164.577 286.939 165.729C286.459 166.913 285.851 167.937 285.115 168.801H287.131V172.737H268.219C267.003 172.737 266.203 173.025 265.819 173.601C265.467 174.209 265.291 174.865 265.291 175.569L261.931 174.657C261.931 171.585 263.179 169.729 265.675 169.089C264.651 168.353 263.707 167.345 262.843 166.065C262.011 164.817 261.595 163.217 261.595 161.265ZM265.435 162.225C265.435 163.441 265.723 164.593 266.299 165.681C266.907 166.769 267.659 167.681 268.555 168.417L281.947 168.417C282.555 167.553 283.035 166.593 283.387 165.537C283.771 164.513 283.963 163.425 283.963 162.273C283.963 160.737 283.563 159.377 282.763 158.193C281.995 157.041 280.907 156.129 279.499 155.457C278.123 154.785 276.507 154.449 274.651 154.449C272.859 154.449 271.259 154.785 269.851 155.457C268.475 156.129 267.387 157.057 266.587 158.241C265.819 159.425 265.435 160.753 265.435 162.225Z" fill="black"/>
<path d="M261.595 132.708C261.595 130.308 262.379 128.404 263.947 126.996C265.547 125.62 267.819 124.932 270.763 124.932H282.475V120.612H286.219V125.028L294.091 125.94V129.252H286.219V136.164L282.475 136.164V129.252H270.427C268.571 129.252 267.275 129.636 266.539 130.404C265.803 131.204 265.435 132.148 265.435 133.236C265.435 134.036 265.563 134.788 265.819 135.492C266.075 136.228 266.379 136.9 266.731 137.508L263.275 138.708C262.891 138.068 262.523 137.204 262.171 136.116C261.787 135.028 261.595 133.892 261.595 132.708Z" fill="black"/>
<path d="M261.595 94.299C261.595 92.219 262.123 90.331 263.179 88.635C264.235 86.939 265.723 85.579 267.643 84.555C269.595 83.563 271.883 83.067 274.507 83.067C277.003 83.067 279.243 83.563 281.227 84.555C283.211 85.579 284.779 86.971 285.931 88.731C287.115 90.523 287.707 92.571 287.707 94.875C287.707 96.315 287.451 97.611 286.939 98.763C286.459 99.947 285.851 100.971 285.115 101.835H287.131V105.771H268.219C267.003 105.771 266.203 106.059 265.819 106.635C265.467 107.243 265.291 107.899 265.291 108.603L261.931 107.691C261.931 104.619 263.179 102.763 265.675 102.123C264.651 101.387 263.707 100.379 262.843 99.099C262.011 97.851 261.595 96.251 261.595 94.299ZM265.435 95.259C265.435 96.475 265.723 97.627 266.299 98.715C266.907 99.803 267.659 100.715 268.555 101.451H281.947C282.555 100.587 283.035 99.627 283.387 98.571C283.771 97.547 283.963 96.459 283.963 95.307C283.963 93.771 283.563 92.411 282.763 91.227C281.995 90.075 280.907 89.163 279.499 88.491C278.123 87.819 276.507 87.483 274.651 87.483C272.859 87.483 271.259 87.819 269.851 88.491C268.475 89.163 267.387 90.091 266.587 91.275C265.819 92.459 265.435 93.787 265.435 95.259Z" fill="black"/>
<path d="M261.691 68.5665L274.987 55.6545H262.171V51.3345L297.691 51.3345V55.6545L277.387 55.6545L287.611 66.9345L284.875 69.4305L276.331 59.7825L264.571 71.5425L261.691 68.5665Z" fill="black"/>
</svg>
